/* XPM */
static const char *eternallands[] = {
/* columns rows colors chars-per-pixel */
"32 32 213 2 ",
"   c #303F0C",
".  c #2E3E12",
"X  c #273622",
"o  c #5A3D18",
"O  c #394508",
"+  c #2E401D",
"@  c #334212",
"#  c #3B4412",
"$  c #39491F",
"%  c #3B561B",
"&  c #3A4B2C",
"*  c #545307",
"=  c #444C14",
"-  c #464B18",
";  c #415317",
":  c #50540C",
">  c #764917",
",  c #5D6C18",
"<  c #716C1E",
"1  c #444A23",
"2  c #5F4A2A",
"3  c #525425",
"4  c #494935",
"5  c #554933",
"6  c #565A32",
"7  c #485C20",
"8  c #665726",
"9  c #72542A",
"0  c #6A593C",
"q  c #755D39",
"w  c #624C2F",
"e  c #566438",
"r  c #5E713D",
"t  c #556230",
"y  c #656426",
"u  c #71612D",
"i  c #796638",
"p  c #716F33",
"a  c #336B4D",
"s  c #2F5E6A",
"d  c #3A5E65",
"f  c #2A6275",
"g  c #3A6B79",
"h  c #33736D",
"j  c #475145",
"k  c #565C47",
"l  c #445655",
"z  c #515754",
"x  c #625E47",
"c  c #5A6148",
"v  c #487649",
"b  c #596854",
"n  c #686D4A",
"m  c #786847",
"M  c #646C5A",
"N  c #626456",
"B  c #766F5B",
"V  c #776751",
"C  c #6B7958",
"Z  c #76765A",
"A  c #6B7747",
"S  c #535A7D",
"D  c #446668",
"F  c #477E60",
"G  c #587768",
"H  c #5F6A70",
"J  c #457A7C",
"K  c #58737B",
"L  c #516772",
"P  c #60636E",
"I  c #6C717A",
"U  c #8B5415",
"Y  c #A46A1E",
"T  c #855B24",
"R  c #876428",
"E  c #8B6D39",
"W  c #996D35",
"Q  c #877439",
"!  c #94733A",
"~  c #987539",
"^  c #A56E28",
"/  c #AB7D3A",
"(  c #A77A39",
")  c #B17D35",
"_  c #8C7244",
"`  c #847449",
"'  c #95774A",
"]  c #8A7B58",
"[  c #937A51",
"{  c #A57F50",
"}  c #897C76",
"|  c #85776C",
" . c #26857B",
".. c #38837A",
"X. c #7E875E",
"o. c #498774",
"O. c #588A79",
"+. c #589871",
"@. c #6C8D6F",
"#. c #7A8362",
"$. c #678673",
"%. c #619470",
"&. c #72926E",
"*. c #73A675",
"=. c #AD853D",
"-. c #B7883B",
";. c #C18832",
":. c #8A865A",
">. c #96865C",
",. c #9F8C51",
"<. c #AD8445",
"1. c #A2854B",
"2. c #A68040",
"3. c #BA8C48",
"4. c #BB9149",
"5. c #A38C54",
"6. c #B69758",
"7. c #808D7D",
"8. c #8E9479",
"9. c #8E8D6E",
"0. c #A09264",
"q. c #A5917A",
"w. c #A5886A",
"e. c #ADA27D",
"r. c #C79446",
"t. c #C79A54",
"y. c #C29F61",
"u. c #3B7093",
"i. c #267AAB",
"p. c #246CB3",
"a. c #635E82",
"s. c #4A6983",
"d. c #567E99",
"f. c #59728B",
"g. c #757B8D",
"h. c #717691",
"j. c #457AA5",
"k. c #7270BF",
"l. c #6764BC",
"z. c #927FA4",
"x. c #1A8C9C",
"c. c #328580",
"v. c #368989",
"b. c #379A97",
"n. c #23979F",
"m. c #2FA19F",
"M. c #37A69A",
"N. c #1B8CA7",
"B. c #1596AB",
"V. c #189CB4",
"C. c #3199A4",
"Z. c #2995AA",
"A. c #16A8B7",
"S. c #2AB8BD",
"D. c #31A9A8",
"F. c #549688",
"G. c #569D99",
"H. c #45918D",
"J. c #629291",
"K. c #6C8B90",
"L. c #45A082",
"P. c #57A799",
"I. c #4EA697",
"U. c #6DA78D",
"Y. c #4E8FAA",
"T. c #7A89A7",
"R. c #759DAB",
"E. c #7A98B5",
"W. c #7489AC",
"Q. c #58ACA2",
"!. c #48B1A3",
"~. c #57ABB3",
"^. c #76A9B0",
"/. c #43C1B2",
"(. c #1785CE",
"). c #398FCA",
"_. c #33BAC9",
"`. c #4890C8",
"'. c #77A4C4",
"]. c #60AEDF",
"[. c #5BB7E3",
"{. c #0CC9D4",
"}. c #5DC1C9",
"|. c #958B86",
" X c #858894",
".X c #91948F",
"XX c #A39789",
"oX c #8FA18D",
"OX c #ABA398",
"+X c #8995A7",
"@X c #9598B2",
"#X c #8E9EB9",
"$X c #A19FAA",
"%X c #94A7AD",
"&X c #82AAA2",
"*X c #BFB5AF",
"=X c #B7AFB1",
"-X c #B1B3B1",
";X c #C0B694",
":X c #C2B9B7",
">X c #9D9CD7",
",X c #A08CC7",
"<X c #83A6C7",
"1X c #B5B9C2",
"2X c #B0BED3",
"3X c #ABB6CD",
"4X c #9CC3DB",
"5X c #B9C8D4",
"6X c #BDD4DB",
"7X c #9FCBE2",
"8X c #C4CFD8",
"9X c #D5D8E0",
"0X c None",
/* pixels */
"0X0X0X0X0X0X0X0X0X0X0X0X0X0X0X0X0X0X0X0X0X0X0X0X0X0X0X0X0X0X0X0X",
"0X0X0X0X0X0X0X0X0X0X0X0X0X0X0X0X0X0X0X0X0X0X0X0X0X0X0X0X0X0X0X0X",
"0X0X0X0X0X0X0X0X0X0X0X0X0X0X0Xe.[ 0X0X0X0X0X0X0X0X0X0X0X0X0X0X0X",
"0X0X0X0X0X0X0X0X0X0X0X0X0X0X{ ^.d.W 0X0X0X0X0X0X0X0X0X0X0X0X0X0X",
"0X0X0X0X0X0X0X0X0X0X0X0X0X3.W Y.u.T ) 0X0X0X0X0X0X0X0X0X0X0X0X0X",
"0X0X0X0X0X0X0X0X0Xt.t.y.>.N l M N l N [ 6.r.r.0X0X0X0X0X0X0X0X0X",
"0X0X0X0X0X0X0X0X0X3.[ J i.(.`.j.+Xj.).E.K _ ) 0X0X0X0X0X0X0X0X0X",
"0X0X0X0X0X0X0X0X] M Y.[.'.4X1X#X$Xh.E.5X].i.B ` 0X0X0X0X0X0X0X0X",
"0X0X0X0X0X0X0X3.M ~.6X1X@X2X9X=X} } T.W.<X7XR.b / 0X0X0X0X0X0X0X",
"0X0X0X0X0X0Xt.>.%X6X:X X+X8X=XXXw.' }  XW.3X'.'.] 4.0X0X0X0X0X0X",
"0X0X0X0X0X0X1.XX|.g.*X|.g.8XOXq.m _ V P s.T.E.>Xh.1.0X0X0X0X0X0X",
"0X0X0X0X0X4.B  Xq.P I 9.B 8.;X5.y 9.Z & l I ,X,Xk.B -.0X0X0X0X0X",
"0X0X0X0X0X<.XX%X|.| l c p e K.8.:.oXp y c z.@XH l.S =.0X0X0X0X0X",
"0X0X0X0X0X! #.8.-Xn e t G H._._.~.}.F.#.#.|.w.0 a.f.! 0X0X0X0X0X",
"0X0X0X0X( 9 = * Q A n G C.b.S.S.Q._.S.U.X.,.5.i 3 $ i <.0X0X0X0X",
"0X0Xt.>.f.i 3 * = G v.B.m.!.U.9.C @.+.m.!.&XZ < : 1 _ J.] 4.0X0X",
"0X0X0XT 0 o - 6 c J b.!.%.P.5.1.E i o.%.v.V.P.:.n M 9 q 9 0X0X0X",
"0X0X0X0XU R # 6 F  .Z.P.M.I.0.5.` m D V.M.o.N.G.%XZ ! U 0X0X0X0X",
"0X0X0X0X0X/ u 8 @ % c.D.*.F.b.I.c...%.o.A.N.a v C C =.0X0X0X0X0X",
"0X0X0X0X0X) Q = O O % O.H.+.L.{.S./.&.C F.h ; O @ ` -.0X0X0X0X0X",
"0X0X0X0X0X<./ 3 O + @ - v L.n.A.b.B.x.N.O.: @ X k 4.<.0X0X0X0X0X",
"0X0X0X0X0X0X0 ~ - j $.1 1 h C.v  .c.a ..r # & k 1.0 0X0X0X0X0X0X",
"0X0X0X0X0Xd N ( 1.b R.K b ; e @.C , O @ : . c 6./ x d 0X0X0X0X0X",
"0X0X0X0Xg D 4 j ~ ( >.b ; O $ R.K.7   @ 1 _ 2.~ j 4 D g 0X0X0X0X",
"0X0X0X0Xm 0X0Xf s 5 T 8 = = & oX7.t = = 8 T 5 s f 0X0Xi 0X0X0X0X",
"0X0X0X0X0X0X0X0XJ l 2 Y R u ! ^.J.E u i Y 2 l J 0X0X0X0X0X0X0X0X",
"0X0X0X0X0X0X0X0X0X0X0X0X^ 2 m ).p.w 2 ^ 0X0X0X0X0X0X0X0X0X0X0X0X",
"0X0X0X0X0X0X0X0X0X0X0X0X0X0XR J.s.> 0X0X0X0X0X0X0X0X0X0X0X0X0X0X",
"0X0X0X0X0X0X0X0X0X0X0X0X0X0X0X' q 0X0X0X0X0X0X0X0X0X0X0X0X0X0X0X",
"0X0X0X0X0X0X0X0X0X0X0X0X0X0X0X;.^ 0X0X0X0X0X0X0X0X0X0X0X0X0X0X0X",
"0X0X0X0X0X0X0X0X0X0X0X0X0X0X0X0X0X0X0X0X0X0X0X0X0X0X0X0X0X0X0X0X",
"0X0X0X0X0X0X0X0X0X0X0X0X0X0X0X0X0X0X0X0X0X0X0X0X0X0X0X0X0X0X0X0X"
};
